X:0314
T:The Ruffians Rant.
M:2/4
L:1/8
Q:1/4=120
I: :: :: :: ::
Z:Jack Campin * www.campin.me.uk * 2009
K:D
B|A<FTF>D  |TE>DFB  | A<F TF>D       |TE>DEB |
  A<FTE>D  | d>ef>e | d<BAF          |TE>DE :|
B|A<Fd>A   | B>Ad>B | A<F d>A        | B>ABd |
  A<F(TE>D)| d>eTfe | d>Bd>F         | E>DE :|
b|a<fTf>e  |Tf>efb  | a<fTf>d        |Te>deb |
  a<ff>e   | d>eTf>e|(d/c/B/A/ d3/)F/| E>DE :|
B|A<Fd>A   |TB>Ad>A |TB>Ad>A         | B>AB<d|
  A<FE>D   | d>eTf>e| d>BA>F         |TE>DE :|

